X:1
T:Title
%%score 1 ( 2 3 )
L:1/8
Q:1/4=100
M:4/4
K:G
V:1 treble nm="Grand Piano, Soprano"
V:2 bass nm="Choir Pad, Bass"
V:3 bass 
V:1
 [DB][DB][DB][CA] [B,G][B,G][B,G]D | [CE]2 [CE]2 [B,D]4 | G[GA][GB][Gd] [Ge][Gd][GB]G | %3
w: By~Sanford~Miller~Brown * * * * * * *|||
 [GB]2 [GB]2 [FA]2 z2 | [DB][DB][DB][CA] [B,G][B,G][B,G]D | [CE]2 [CE]2 [B,D]4 | %6
w: |||
 G[GA][GB][Gd] [Ge][Gd][GB]G | [FA]2 [FA]2 G4 | [Gd][Gd][Gd][Gd] [Gd][Gd] z2 | %9
w: |||
 [Ge][Ge][Ge][GB] [Gd]2 z2 | [Gd][Gd][Ge][Gd] [DB]2 [EG]2 | [FA]6 z2 | %12
w: |||
 [DB][DB][DB][CA] [B,G][B,G][B,G]D | [CE]2 [CE]2 [B,D]4 | G[GA][GB][Gd] [Ge][Gd][GB]G | %15
w: |||
 [FA]2 [FA]2 G4- | G4 z4 |] %17
w: ||
V:2
 G,G,G,G, G,G,G,[B,,G,] | G,2 G,2 z4 | [G,B,][G,C][G,D][G,B,] [G,C][G,B,][G,D][G,B,] | %3
 [G,D]2 [G,D]2 [D,D]2 z2 | G,G,G,G, G,G,G,[B,,G,] | G,2 G,2 z4 | %6
 [G,B,][G,C][G,D][G,B,] [G,C][G,B,][G,D][G,B,] | [D,C]2 [D,C]2 [G,B,]4 | %8
 [G,B,][G,B,][G,B,][G,B,] [G,B,][G,B,] z2 | [C,C][C,C][C,C][G,D] [G,B,]2 z2 | %10
 [G,B,][G,B,][G,C][G,B,] G,2 [E,B,]2 | [D,D]6 z2 | G,G,G,G, G,G,G,[B,,G,] | G,2 G,2 z4 | %14
 [G,B,][G,C][G,D][G,B,] [G,C][G,B,][G,D][G,B,] | [D,C]2 [D,C]2 [G,B,]4- | [G,B,]4 z4 |] %17
V:3
 x8 | C,D,E,F, G,4 | x8 | x8 | x8 | C,D,E,F, G,4 | x8 | x8 | x8 | x8 | x8 | x8 | x8 | %13
 C,D,E,F, G,4 | x8 | x8 | x8 |] %17

